src/assets/duotone/SmsStar.svg

<svg width="24" height="24" viewBox="0 0 24 24"  xmlns="http://www.w3.org/2000/svg">
<path d="M19.4802 2.81994L19.7602 3.38993C19.9002 3.66993 20.2502 3.92994 20.5602 3.98994L20.9402 4.04994C22.0802 4.23994 22.3502 5.07994 21.5302 5.90994L21.1802 6.25993C20.9502 6.49993 20.8202 6.95993 20.8902 7.27993L20.9402 7.48994C21.2502 8.86994 20.5202 9.39993 19.3202 8.67993L19.0602 8.52993C18.7502 8.34993 18.2502 8.34993 17.9402 8.52993L17.6802 8.67993C16.4702 9.40993 15.7402 8.86994 16.0602 7.48994L16.1102 7.27993C16.1802 6.95993 16.0502 6.49993 15.8202 6.25993L15.4702 5.90994C14.6502 5.07994 14.9202 4.23994 16.0602 4.04994L16.4402 3.98994C16.7402 3.93994 17.1002 3.66993 17.2402 3.38993L17.5202 2.81994C18.0602 1.72994 18.9402 1.72994 19.4802 2.81994Z" />
<path opacity="0.4" d="M22 9.67V15.5C22 19 20 20.5 17 20.5H7C4 20.5 2 19 2 15.5V8.5C2 5 4 3.5 7 3.5H14.05C13.85 3.72 13.7 3.98 13.61 4.27C13.32 5.17 13.61 6.15001 14.41 6.96001L14.6 7.14999C14.19 8.95999 15.04 9.81 15.43 10.09C15.65 10.25 16.1 10.5 16.74 10.5C17.21 10.5 17.79 10.36 18.46 9.96001L18.5 9.94L18.54 9.96001C20.12 10.91 21.19 10.37 21.57 10.09C21.69 10.01 21.85 9.87 22 9.67Z" />
<path d="M11.9998 12.8698C11.1598 12.8698 10.3098 12.6098 9.65978 12.0798L6.52978 9.57978C6.20978 9.31978 6.14978 8.84978 6.40978 8.52978C6.66978 8.20978 7.13977 8.14978 7.45977 8.40978L10.5898 10.9098C11.3498 11.5198 12.6398 11.5198 13.3998 10.9098C13.7198 10.6498 14.1898 10.6998 14.4498 11.0298C14.7098 11.3498 14.6598 11.8298 14.3298 12.0798C13.6898 12.6098 12.8398 12.8698 11.9998 12.8698Z" />
</svg>

<?xml version="1.0" encoding="UTF-8"?>
<svg width="24" height="24" viewBox="0 0 24 24" xmlns="http://www.w3.org/2000/svg">
 <path d="m19.48 2.8199 0.28 0.56999c0.14 0.28 0.49 0.54001 0.8 0.60001l0.38 0.06c1.14 0.19 1.41 1.03 0.59 1.86l-0.35 0.34999c-0.23 0.24-0.36 0.7-0.29 1.02l0.05 0.21001c0.31 1.38-0.42 1.91-1.62 1.19l-0.26-0.15c-0.31-0.18-0.81-0.18-1.12 0l-0.26 0.15c-1.21 0.73-1.94 0.19001-1.62-1.19l0.05-0.21001c0.07-0.32-0.06-0.78-0.29-1.02l-0.35-0.34999c-0.82-0.83-0.55-1.67 0.59-1.86l0.38-0.06c0.3-0.05 0.66-0.32001 0.8-0.60001l0.28-0.56999c0.54-1.09 1.42-1.09 1.96 0z"/>
 <path d="m22 9.67v5.83c0 3.5-2 5-5 5h-10c-3 0-5-1.5-5-5v-7c0-3.5 2-5 5-5h7.05c-0.2 0.22-0.35 0.48-0.44 0.77-0.29 0.9 0 1.88 0.8 2.69l0.19 0.18998c-0.41 1.81 0.44 2.66 0.83 2.94 0.22 0.16 0.67 0.41 1.31 0.41 0.47 0 1.05-0.14 1.72-0.53999l0.04-0.02001 0.04 0.02001c1.58 0.94999 2.65 0.40999 3.03 0.12999 0.12-0.08 0.28-0.22 0.43-0.42z" opacity=".4"/>
 <path d="m12 12.87c-0.84 0-1.69-0.26-2.34-0.79l-3.13-2.5c-0.32-0.26-0.38-0.73-0.12-1.05s0.72999-0.38 1.05-0.12l3.13 2.5c0.76 0.61 2.05 0.61 2.81 0 0.32-0.26 0.79-0.21 1.05 0.12 0.26 0.32 0.21 0.8-0.12 1.05-0.64 0.53-1.49 0.79-2.33 0.79z"/>
</svg>
